elements/rpg-character/lib/base/fire.svg

<svg width="113" height="142" viewBox="0 0 113 142" fill="none" xmlns="http://www.w3.org/2000/svg">
<path fill-rule="evenodd" clip-rule="evenodd" d="M11.5 122.5V128.5H14.5V131.5H17.5V134.5H29.5V131.5H32.5V128.5H35.5V122.5H32.5V116.5H35.5V113.5H32.5V110.5H29.5V104.5H32.5V101.5H35.5V98.5H32.5V95.5H29.5V98.5H26.5V101.5H29.5V104.5H26.5V110.5H29.5V113.5H32.5V116.5H29.5V122.5H32.5V128.5H29.5V131.5H17.5V128.5H14.5V122.5H17.5V119.5H20.5V113.5H14.5V107.5H20.5V113.5H26.5V116.5H23.5V113.5V107.5H20.5V104.5H17.5V107.5V113.5V119.5H14.5V122.5H11.5ZM29.5 101.5V98.5H32.5V101.5H29.5Z" fill="#FF0000"/>
<path d="M17.5 113.5V110.5H20.5V113.5H23.5V119.5H20.5V122.5H17.5V128.5H20.5V131.5H17.5V128.5H14.5V122.5H17.5V119.5H20.5V113.5H17.5Z" fill="#FFA800"/>
<path d="M32.5 101.5H29.5V98.5H32.5V101.5Z" fill="#FFA800"/>
<path d="M26.5 131.5V128.5H29.5V122.5H26.5V119.5H29.5V122.5H32.5V128.5H29.5V131.5H26.5Z" fill="#FFA800"/>
<path d="M26.5 125.5V122.5H29.5V125.5H26.5Z" fill="#FFE925"/>
<path d="M29.5 119.5H23.5V122.5H20.5V125.5H17.5V122.5H20.5V119.5H23.5V116.5H26.5V110.5H29.5V113.5H32.5V116.5H29.5V119.5Z" fill="#FFE925"/>
<path d="M20.5 107.5H17.5V110.5H20.5V107.5Z" fill="#FFE925"/>
<path d="M20.5 131.5V128.5H17.5V125.5H20.5V122.5H23.5V119.5H26.5V125.5H29.5V128.5H26.5V131.5H20.5Z" fill="white"/>
<path d="M36 122H33V117H36V113H33V110H30V105H33V102H36V98H33V95H29V98H26V102H29V104H26V113H24V107H21V104H17V107H14V114H17V119H14V122H11V129H14V132H17V135H30V132H33V129H36V122Z" stroke="#B70808"/>
<path d="M84.5 127.5V118.5H87.5V115.5H90.5V112.5H93.5V106.5H96.5V109.5H99.5V115.5H102.5V124.5H99.5V127.5H96.5V130.5H93.5V127.5H96.5V124.5H99.5V115.5H96.5V112.5H93.5V115.5H90.5V118.5H87.5V127.5H90.5V130.5H87.5V127.5H84.5Z" fill="#FF0000"/>
<path d="M99.5 124.5H96.5V115.5H93.5V118.5H90.5V121.5H87.5V118.5H90.5V115.5H93.5V112.5H96.5V115.5H99.5V124.5Z" fill="#FFA800"/>
<path d="M90.5 130.5V127.5H93.5V130.5H90.5Z" fill="#FFA800"/>
<path d="M90.5 127.5H87.5V121.5H90.5V118.5H93.5V115.5H96.5V118.5V121.5H90.5V127.5Z" fill="#FFE925"/>
<path d="M96.5 127.5H93.5V124.5H96.5V127.5Z" fill="#FFE925"/>
<path d="M93.5 127.5H90.5V121.5H96.5V124.5H93.5V127.5Z" fill="white"/>
<path d="M103 125V115H100V109H97V106H93V112H90V115H87V118H84V128H87V131H97V128H100V125H103Z" stroke="#B70808"/>
<path fill-rule="evenodd" clip-rule="evenodd" d="M88.5 125.5V131.5H85.5V134.5H82.5V137.5H70.5V134.5H67.5V131.5H64.5V125.5H67.5V119.5H64.5V116.5H67.5V113.5H70.5V107.5H67.5V104.5H64.5V101.5H67.5V98.5H70.5V101.5H73.5V104.5H70.5V107.5H73.5V113.5H70.5V116.5H67.5V119.5H70.5V125.5H67.5V131.5H70.5V134.5H82.5V131.5H85.5V125.5H82.5V122.5H79.5V116.5H85.5V110.5H79.5V116.5H73.5V119.5H76.5V116.5V110.5H79.5V107.5H82.5V110.5V116.5V122.5H85.5V125.5H88.5ZM70.5 104.5V101.5H67.5V104.5H70.5Z" fill="#FF0000"/>
<path d="M82.5 116.5V113.5H79.5V116.5H76.5V122.5H79.5V125.5H82.5V131.5H79.5V134.5H82.5V131.5H85.5V125.5H82.5V122.5H79.5V116.5H82.5Z" fill="#FFA800"/>
<path d="M67.5 104.5H70.5V101.5H67.5V104.5Z" fill="#FFA800"/>
<path d="M73.5 134.5V131.5H70.5V125.5H73.5V122.5H70.5V125.5H67.5V131.5H70.5V134.5H73.5Z" fill="#FFA800"/>
<path d="M73.5 128.5V125.5H70.5V128.5H73.5Z" fill="#FFE925"/>
<path d="M70.5 122.5H76.5V125.5H79.5V128.5H82.5V125.5H79.5V122.5H76.5V119.5H73.5V113.5H70.5V116.5H67.5V119.5H70.5V122.5Z" fill="#FFE925"/>
<path d="M79.5 110.5H82.5V113.5H79.5V110.5Z" fill="#FFE925"/>
<path d="M79.5 134.5V131.5H82.5V128.5H79.5V125.5H76.5V122.5H73.5V128.5H70.5V131.5H73.5V134.5H79.5Z" fill="white"/>
<path d="M64 125H67V120H64V116H67V113H70V108H67V105H64V101H67V98H71V101H74V105H71V107H74V116H76V110H79V107H83V110H86V117H83V122H86V125H89V132H86V135H83V138H70V135H67V132H64V125Z" stroke="#B70808"/>
<path d="M46.5 134.5V125.5H49.5V122.5H52.5V119.5H55.5V113.5H58.5V116.5H61.5V122.5H64.5V131.5H61.5V134.5H58.5V137.5H55.5V134.5H58.5V131.5H61.5V122.5H58.5V119.5H55.5V122.5H52.5V125.5H49.5V134.5H52.5V137.5H49.5V134.5H46.5Z" fill="#FF0000"/>
<path d="M61.5 131.5H58.5V122.5H55.5V125.5H52.5V128.5H49.5V125.5H52.5V122.5H55.5V119.5H58.5V122.5H61.5V131.5Z" fill="#FFA800"/>
<path d="M52.5 137.5V134.5H55.5V137.5H52.5Z" fill="#FFA800"/>
<path d="M52.5 134.5H49.5V128.5H52.5V125.5H55.5V122.5H58.5V125.5V128.5H52.5V134.5Z" fill="#FFE925"/>
<path d="M58.5 134.5H55.5V131.5H58.5V134.5Z" fill="#FFE925"/>
<path d="M55.5 134.5H52.5V128.5H58.5V131.5H55.5V134.5Z" fill="white"/>
<path d="M65 132V122H62V116H59V113H55V119H52V122H49V125H46V135H49V138H59V135H62V132H65Z" stroke="#B70808"/>
<path d="M48.5 135.5V126.5H45.5V123.5H42.5V120.5H39.5V114.5H36.5V117.5H33.5V123.5H30.5V132.5H33.5V135.5H36.5V138.5H39.5V135.5H36.5V132.5H33.5V123.5H36.5V120.5H39.5V123.5H42.5V126.5H45.5V135.5H42.5V138.5H45.5V135.5H48.5Z" fill="#FF0000"/>
<path d="M33.5 132.5H36.5V123.5H39.5V126.5H42.5V129.5H45.5V126.5H42.5V123.5H39.5V120.5H36.5V123.5H33.5V132.5Z" fill="#FFA800"/>
<path d="M42.5 138.5V135.5H39.5V138.5H42.5Z" fill="#FFA800"/>
<path d="M42.5 135.5H45.5V129.5H42.5V126.5H39.5V123.5H36.5V126.5V129.5H42.5V135.5Z" fill="#FFE925"/>
<path d="M36.5 135.5H39.5V132.5H36.5V135.5Z" fill="#FFE925"/>
<path d="M39.5 135.5H42.5V129.5H36.5V132.5H39.5V135.5Z" fill="white"/>
<path d="M30 133V123H33V117H36V114H40V120H43V123H46V126H49V136H46V139H36V136H33V133H30Z" stroke="#B70808"/>
<path d="M33 62H43V72H33V62Z" fill="black"/>
<path d="M63 62H73V72H63V62Z" fill="black"/>
</svg>

<svg xmlns="http://www.w3.org/2000/svg" fill="none" width="113" height="142" viewBox="0 0 113 142"><path d="M11.5 122.5v6h3v3h3v3h12v-3h3v-3h3v-6h-3v-6h3v-3h-3v-3h-3v-6h3v-3h3v-3h-3v-3h-3v3h-3v3h3v3h-3v6h3v3h3v3h-3v6h3v6h-3v3h-12v-3h-3v-6h3v-3h3v-6h-6v-6h6v6h6v3h-3v-9h-3v-3h-3v15h-3v3h-3Zm18-21v-3h3v3h-3Z" fill="red" fill-rule="evenodd" clip-rule="evenodd"/><path d="M17.5 113.5v-3h3v3h3v6h-3v3h-3v6h3v3h-3v-3h-3v-6h3v-3h3v-6h-3Zm15-12h-3v-3h3v3Zm-6 30v-3h3v-6h-3v-3h3v3h3v6h-3v3h-3Z" fill="#FFA800"/><path d="M26.5 125.5v-3h3v3h-3Zm3-6h-6v3h-3v3h-3v-3h3v-3h3v-3h3v-6h3v3h3v3h-3v3Zm-9-12h-3v3h3v-3Z" fill="#FFE925"/><path d="M20.5 131.5v-3h-3v-3h3v-3h3v-3h3v6h3v3h-3v3h-6Z" fill="#fff"/><path d="M36 122h-3v-5h3v-4h-3v-3h-3v-5h3v-3h3v-4h-3v-3h-4v3h-3v4h3v2h-3v9h-2v-6h-3v-3h-4v3h-3v7h3v5h-3v3h-3v7h3v3h3v3h13v-3h3v-3h3v-7Z" stroke="#B70808"/><path d="M84.5 127.5v-9h3v-3h3v-3h3v-6h3v3h3v6h3v9h-3v3h-3v3h-3v-3h3v-3h3v-9h-3v-3h-3v3h-3v3h-3v9h3v3h-3v-3h-3Z" fill="red"/><path d="M99.5 124.5h-3v-9h-3v3h-3v3h-3v-3h3v-3h3v-3h3v3h3v9Zm-9 6v-3h3v3h-3Z" fill="#FFA800"/><path d="M90.5 127.5h-3v-6h3v-3h3v-3h3v6h-6v6Z" fill="#FFE925"/><path d="M96.5 127.5h-3v-3h3v3Z" fill="#FFE925"/><path d="M93.5 127.5h-3v-6h6v3h-3v3Z" fill="#fff"/><path d="M103 125v-10h-3v-6h-3v-3h-4v6h-3v3h-3v3h-3v10h3v3h10v-3h3v-3h3Z" stroke="#B70808"/><path d="M88.5 125.5v6h-3v3h-3v3h-12v-3h-3v-3h-3v-6h3v-6h-3v-3h3v-3h3v-6h-3v-3h-3v-3h3v-3h3v3h3v3h-3v3h3v6h-3v3h-3v3h3v6h-3v6h3v3h12v-3h3v-6h-3v-3h-3v-6h6v-6h-6v6h-6v3h3v-9h3v-3h3v15h3v3h3Zm-18-21v-3h-3v3h3Z" fill="red" fill-rule="evenodd" clip-rule="evenodd"/><path d="M82.5 116.5v-3h-3v3h-3v6h3v3h3v6h-3v3h3v-3h3v-6h-3v-3h-3v-6h3Zm-15-12h3v-3h-3v3Zm6 30v-3h-3v-6h3v-3h-3v3h-3v6h3v3h3Z" fill="#FFA800"/><path d="M73.5 128.5v-3h-3v3h3Zm-3-6h6v3h3v3h3v-3h-3v-3h-3v-3h-3v-6h-3v3h-3v3h3v3Zm9-12h3v3h-3v-3Z" fill="#FFE925"/><path d="M79.5 134.5v-3h3v-3h-3v-3h-3v-3h-3v6h-3v3h3v3h6Z" fill="#fff"/><path d="M64 125h3v-5h-3v-4h3v-3h3v-5h-3v-3h-3v-4h3v-3h4v3h3v4h-3v2h3v9h2v-6h3v-3h4v3h3v7h-3v5h3v3h3v7h-3v3h-3v3H70v-3h-3v-3h-3v-7Z" stroke="#B70808"/><path d="M46.5 134.5v-9h3v-3h3v-3h3v-6h3v3h3v6h3v9h-3v3h-3v3h-3v-3h3v-3h3v-9h-3v-3h-3v3h-3v3h-3v9h3v3h-3v-3h-3Z" fill="red"/><path d="M61.5 131.5h-3v-9h-3v3h-3v3h-3v-3h3v-3h3v-3h3v3h3v9Zm-9 6v-3h3v3h-3Z" fill="#FFA800"/><path d="M52.5 134.5h-3v-6h3v-3h3v-3h3v6h-6v6Z" fill="#FFE925"/><path d="M58.5 134.5h-3v-3h3v3Z" fill="#FFE925"/><path d="M55.5 134.5h-3v-6h6v3h-3v3Z" fill="#fff"/><path d="M65 132v-10h-3v-6h-3v-3h-4v6h-3v3h-3v3h-3v10h3v3h10v-3h3v-3h3Z" stroke="#B70808"/><path d="M48.5 135.5v-9h-3v-3h-3v-3h-3v-6h-3v3h-3v6h-3v9h3v3h3v3h3v-3h-3v-3h-3v-9h3v-3h3v3h3v3h3v9h-3v3h3v-3h3Z" fill="red"/><path d="M33.5 132.5h3v-9h3v3h3v3h3v-3h-3v-3h-3v-3h-3v3h-3v9Zm9 6v-3h-3v3h3Z" fill="#FFA800"/><path d="M42.5 135.5h3v-6h-3v-3h-3v-3h-3v6h6v6Z" fill="#FFE925"/><path d="M36.5 135.5h3v-3h-3v3Z" fill="#FFE925"/><path d="M39.5 135.5h3v-6h-6v3h3v3Z" fill="#fff"/><path d="M30 133v-10h3v-6h3v-3h4v6h3v3h3v3h3v10h-3v3H36v-3h-3v-3h-3Z" stroke="#B70808"/><path d="M33 62h10v10H33V62Zm30 0h10v10H63V62Z" fill="#000"/></svg>
